src/images/sprite.svg

<svg aria-hidden="true" style="position: absolute; width: 0; height: 0; overflow: hidden;" version="1.1" xmlns="http://www.w3.org/2000/svg" xmlns:xlink="http://www.w3.org/1999/xlink">
<defs>
<symbol id="icon-envelop" viewBox="0 0 32 32">
<path d="M29 4h-26c-1.65 0-3 1.35-3 3v20c0 1.65 1.35 3 3 3h26c1.65 0 3-1.35 3-3v-20c0-1.65-1.35-3-3-3zM12.461 17.199l-8.461 6.59v-15.676l8.461 9.086zM5.512 8h20.976l-10.488 7.875-10.488-7.875zM12.79 17.553l3.21 3.447 3.21-3.447 6.58 8.447h-19.579l6.58-8.447zM19.539 17.199l8.461-9.086v15.676l-8.461-6.59z"></path>
</symbol>
<symbol id="icon-bubble" viewBox="0 0 32 32">
<path d="M16 2c8.837 0 16 5.82 16 13s-7.163 13-16 13c-0.849 0-1.682-0.054-2.495-0.158-3.437 3.437-7.539 4.053-11.505 4.144v-0.841c2.142-1.049 4-2.961 4-5.145 0-0.305-0.024-0.604-0.068-0.897-3.619-2.383-5.932-6.024-5.932-10.103 0-7.18 7.163-13 16-13z"></path>
</symbol>
<symbol id="icon-lock" viewBox="0 0 32 32">
<path d="M18.5 14h-0.5v-6c0-3.308-2.692-6-6-6h-4c-3.308 0-6 2.692-6 6v6h-0.5c-0.825 0-1.5 0.675-1.5 1.5v15c0 0.825 0.675 1.5 1.5 1.5h17c0.825 0 1.5-0.675 1.5-1.5v-15c0-0.825-0.675-1.5-1.5-1.5zM6 8c0-1.103 0.897-2 2-2h4c1.103 0 2 0.897 2 2v6h-8v-6z"></path>
</symbol>
<symbol id="icon-cog" viewBox="0 0 32 32">
<path d="M29.181 19.070c-1.679-2.908-0.669-6.634 2.255-8.328l-3.145-5.447c-0.898 0.527-1.943 0.829-3.058 0.829-3.361 0-6.085-2.742-6.085-6.125h-6.289c0.008 1.044-0.252 2.103-0.811 3.070-1.679 2.908-5.411 3.897-8.339 2.211l-3.144 5.447c0.905 0.515 1.689 1.268 2.246 2.234 1.676 2.903 0.672 6.623-2.241 8.319l3.145 5.447c0.895-0.522 1.935-0.82 3.044-0.82 3.35 0 6.067 2.725 6.084 6.092h6.289c-0.003-1.034 0.259-2.080 0.811-3.038 1.676-2.903 5.399-3.894 8.325-2.219l3.145-5.447c-0.899-0.515-1.678-1.266-2.232-2.226zM16 22.479c-3.578 0-6.479-2.901-6.479-6.479s2.901-6.479 6.479-6.479c3.578 0 6.479 2.901 6.479 6.479s-2.901 6.479-6.479 6.479z"></path>
</symbol>
<symbol id="icon-bin" viewBox="0 0 32 32">
<path d="M4 10v20c0 1.1 0.9 2 2 2h18c1.1 0 2-0.9 2-2v-20h-22zM10 28h-2v-14h2v14zM14 28h-2v-14h2v14zM18 28h-2v-14h2v14zM22 28h-2v-14h2v14z"></path>
<path d="M26.5 4h-6.5v-2.5c0-0.825-0.675-1.5-1.5-1.5h-7c-0.825 0-1.5 0.675-1.5 1.5v2.5h-6.5c-0.825 0-1.5 0.675-1.5 1.5v2.5h26v-2.5c0-0.825-0.675-1.5-1.5-1.5zM18 4h-6v-1.975h6v1.975z"></path>
</symbol>
<symbol id="icon-switch" viewBox="0 0 32 32">
<path d="M20 4.581v4.249c1.131 0.494 2.172 1.2 3.071 2.099 1.889 1.889 2.929 4.4 2.929 7.071s-1.040 5.182-2.929 7.071c-1.889 1.889-4.4 2.929-7.071 2.929s-5.182-1.040-7.071-2.929c-1.889-1.889-2.929-4.4-2.929-7.071s1.040-5.182 2.929-7.071c0.899-0.899 1.94-1.606 3.071-2.099v-4.249c-5.783 1.721-10 7.077-10 13.419 0 7.732 6.268 14 14 14s14-6.268 14-14c0-6.342-4.217-11.698-10-13.419zM14 0h4v16h-4z"></path>
</symbol>
<symbol id="icon-heart" viewBox="0 0 32 32">
<path d="M23.6 2c-3.363 0-6.258 2.736-7.599 5.594-1.342-2.858-4.237-5.594-7.601-5.594-4.637 0-8.4 3.764-8.4 8.401 0 9.433 9.516 11.906 16.001 21.232 6.13-9.268 15.999-12.1 15.999-21.232 0-4.637-3.763-8.401-8.4-8.401z"></path>
</symbol>
<symbol id="icon-linkedin" viewBox="0 0 32 32">
<path d="M29 0h-26c-1.65 0-3 1.35-3 3v26c0 1.65 1.35 3 3 3h26c1.65 0 3-1.35 3-3v-26c0-1.65-1.35-3-3-3zM12 26h-4v-14h4v14zM10 10c-1.106 0-2-0.894-2-2s0.894-2 2-2c1.106 0 2 0.894 2 2s-0.894 2-2 2zM26 26h-4v-8c0-1.106-0.894-2-2-2s-2 0.894-2 2v8h-4v-14h4v2.481c0.825-1.131 2.087-2.481 3.5-2.481 2.488 0 4.5 2.238 4.5 5v9z"></path>
</symbol>
</defs>
</svg>

<svg aria-hidden="true" style="position:absolute;width:0;height:0" xmlns="http://www.w3.org/2000/svg" overflow="hidden"><defs><symbol id="icon-envelop" viewBox="0 0 32 32"><path d="M29 4H3C1.35 4 0 5.35 0 7v20c0 1.65 1.35 3 3 3h26c1.65 0 3-1.35 3-3V7c0-1.65-1.35-3-3-3zM12.461 17.199L4 23.789V8.113l8.461 9.086zM5.512 8h20.976L16 15.875 5.512 8zm7.278 9.553L16 21l3.21-3.447L25.79 26H6.211l6.58-8.447zm6.749-.354L28 8.113v15.676l-8.461-6.59z"/></symbol><symbol id="icon-bubble" viewBox="0 0 32 32"><path d="M16 2c8.837 0 16 5.82 16 13s-7.163 13-16 13a19.66 19.66 0 01-2.495-.158C10.068 31.279 5.966 31.895 2 31.986v-.841C4.142 30.096 6 28.184 6 26c0-.305-.024-.604-.068-.897C2.313 22.72 0 19.079 0 15 0 7.82 7.163 2 16 2z"/></symbol><symbol id="icon-lock" viewBox="0 0 32 32"><path d="M18.5 14H18V8c0-3.308-2.692-6-6-6H8C4.692 2 2 4.692 2 8v6h-.5c-.825 0-1.5.675-1.5 1.5v15c0 .825.675 1.5 1.5 1.5h17c.825 0 1.5-.675 1.5-1.5v-15c0-.825-.675-1.5-1.5-1.5zM6 8c0-1.103.897-2 2-2h4c1.103 0 2 .897 2 2v6H6V8z"/></symbol><symbol id="icon-cog" viewBox="0 0 32 32"><path d="M29.181 19.07c-1.679-2.908-.669-6.634 2.255-8.328l-3.145-5.447a6.022 6.022 0 01-3.058.829c-3.361 0-6.085-2.742-6.085-6.125h-6.289a6.023 6.023 0 01-.811 3.07C10.369 5.977 6.637 6.966 3.709 5.28L.565 10.727a6.023 6.023 0 012.246 2.234c1.676 2.903.672 6.623-2.241 8.319l3.145 5.447a6.022 6.022 0 013.044-.82c3.35 0 6.067 2.725 6.084 6.092h6.289a6.032 6.032 0 01.811-3.038c1.676-2.903 5.399-3.894 8.325-2.219l3.145-5.447a6.032 6.032 0 01-2.232-2.226zM16 22.479A6.48 6.48 0 1116 9.52a6.48 6.48 0 010 12.959z"/></symbol><symbol id="icon-bin" viewBox="0 0 32 32"><path d="M4 10v20c0 1.1.9 2 2 2h18c1.1 0 2-.9 2-2V10H4zm6 18H8V14h2v14zm4 0h-2V14h2v14zm4 0h-2V14h2v14zm4 0h-2V14h2v14zM26.5 4H20V1.5c0-.825-.675-1.5-1.5-1.5h-7c-.825 0-1.5.675-1.5 1.5V4H3.5C2.675 4 2 4.675 2 5.5V8h26V5.5c0-.825-.675-1.5-1.5-1.5zM18 4h-6V2.025h6V4z"/></symbol><symbol id="icon-switch" viewBox="0 0 32 32"><path d="M20 4.581V8.83a10 10 0 013.071 2.099C24.96 12.818 26 15.329 26 18s-1.04 5.182-2.929 7.071C21.182 26.96 18.671 28 16 28s-5.182-1.04-7.071-2.929C7.04 23.182 6 20.671 6 18s1.04-5.182 2.929-7.071A9.982 9.982 0 0112 8.83V4.581C6.217 6.302 2 11.658 2 18c0 7.732 6.268 14 14 14s14-6.268 14-14c0-6.342-4.217-11.698-10-13.419zM14 0h4v16h-4z"/></symbol><symbol id="icon-heart" viewBox="0 0 32 32"><path d="M23.6 2c-3.363 0-6.258 2.736-7.599 5.594C14.659 4.736 11.764 2 8.4 2 3.763 2 0 5.764 0 10.401c0 9.433 9.516 11.906 16.001 21.232C22.131 22.365 32 19.533 32 10.401 32 5.764 28.237 2 23.6 2z"/></symbol><symbol id="icon-linkedin" viewBox="0 0 32 32"><path d="M29 0H3C1.35 0 0 1.35 0 3v26c0 1.65 1.35 3 3 3h26c1.65 0 3-1.35 3-3V3c0-1.65-1.35-3-3-3zM12 26H8V12h4v14zm-2-16c-1.106 0-2-.894-2-2s.894-2 2-2c1.106 0 2 .894 2 2s-.894 2-2 2zm16 16h-4v-8c0-1.106-.894-2-2-2s-2 .894-2 2v8h-4V12h4v2.481C18.825 13.35 20.087 12 21.5 12c2.488 0 4.5 2.238 4.5 5v9z"/></symbol></defs></svg>
